X:1
T:John Ryan's  "137 bpm"
M:C|
L:1/8
Q:80
C:arr. Kent Hiestand
S:Polka
K:HP
a{g}af/2g/2a/2f/2 | \
{g}ec{g}ec | \
a{g}af/2g/2a/2f/2 |
{g}ecB{G}A | \
a{g}af/2g/2a/2f/2 | \
{g}ec{g}ed/2e/2 |
{g}fd{g}ec | \
{Gdc}d2{gdG}d2 :: \
{g}fd{c}de/2f/2 |
{a}gf{g}ed/2e/2 | \
{g}fd{g}Ad/2e/2 | \
{g}fd/2f/2{ag}a3/2g/2 |
{a}fd{c}de/2f/2 | \
{a}gf{g}ed/2e/2 | \
{g}fd{g}ec |
{Gdc}d2{gdG}d2 :|
